assets/1. P-Z/Shield/Color/Shield-color.svg

<svg width="100%" height="100%" viewBox="0 0 32 32" fill="none" xmlns="http://www.w3.org/2000/svg">
<g filter="url(#filter0_i_18_24255)">
<path d="M4.71167 9.21067C4.71167 8.30786 5.41802 7.58918 6.25691 7.25553C7.2671 6.85375 8.37492 6.03244 9.05816 4.341C9.41882 3.44813 10.2116 2.745 11.1745 2.745H18.9787C19.9617 2.745 20.7631 3.48091 21.1616 4.37947C21.8332 5.89373 22.9836 6.81452 24.0055 7.31202C24.8051 7.70129 25.4868 8.44994 25.4868 9.33924V12.5597C25.4868 19.5073 23.3126 23.7012 17.5833 28.5151C16.431 29.4833 14.7637 29.5344 13.5624 28.6277C8.29771 24.6536 4.71167 19.9467 4.71167 12.5597V9.21067Z" fill="#378AED"/>
<path d="M4.71167 9.21067C4.71167 8.30786 5.41802 7.58918 6.25691 7.25553C7.2671 6.85375 8.37492 6.03244 9.05816 4.341C9.41882 3.44813 10.2116 2.745 11.1745 2.745H18.9787C19.9617 2.745 20.7631 3.48091 21.1616 4.37947C21.8332 5.89373 22.9836 6.81452 24.0055 7.31202C24.8051 7.70129 25.4868 8.44994 25.4868 9.33924V12.5597C25.4868 19.5073 23.3126 23.7012 17.5833 28.5151C16.431 29.4833 14.7637 29.5344 13.5624 28.6277C8.29771 24.6536 4.71167 19.9467 4.71167 12.5597V9.21067Z" fill="url(#paint0_radial_18_24255)"/>
</g>
<path d="M15.512 29.2758V2.745H18.9788C19.9617 2.745 20.7631 3.48091 21.1616 4.37947C21.8332 5.89374 22.9836 6.81451 24.0055 7.31202C24.8051 7.70129 25.4868 8.44994 25.4868 9.33923V12.5597C25.4868 19.5073 23.3126 23.7012 17.5833 28.5151C16.9858 29.0172 16.2498 29.2726 15.512 29.2758Z" fill="#3C88F0" fill-opacity="0.5"/>
<g filter="url(#filter1_i_18_24255)">
<path d="M15.512 29.2635V2.745H19.3803C20.3909 2.745 21.2149 3.48091 21.6246 4.37947C22.3151 5.89374 23.4979 6.81451 24.5486 7.31202C25.3707 7.70129 26.0716 8.44994 26.0716 9.33923V12.5597C26.0716 19.5073 23.8362 23.7012 17.9456 28.5151C17.2491 29.0843 16.3696 29.3366 15.512 29.2635Z" fill="url(#paint1_radial_18_24255)"/>
<path d="M15.512 29.2635V2.745H19.3803C20.3909 2.745 21.2149 3.48091 21.6246 4.37947C22.3151 5.89374 23.4979 6.81451 24.5486 7.31202C25.3707 7.70129 26.0716 8.44994 26.0716 9.33923V12.5597C26.0716 19.5073 23.8362 23.7012 17.9456 28.5151C17.2491 29.0843 16.3696 29.3366 15.512 29.2635Z" fill="url(#paint2_radial_18_24255)"/>
</g>
<g filter="url(#filter2_iii_18_24255)">
<path fill-rule="evenodd" clip-rule="evenodd" d="M11.1745 2.04492H19.8495C21.1779 2.04492 22.1809 3.00427 22.615 4.07876C23.2191 5.57452 24.1741 6.26623 25.0258 6.60501C26.0143 6.99815 27.0124 7.91317 27.0124 9.21059V12.5596C27.0124 20.2405 23.254 25.1322 17.8834 29.1863C17.1793 29.7178 16.3446 29.9788 15.512 29.9758C14.6795 29.9788 13.8448 29.7178 13.1407 29.1863C7.77 25.1322 4.01166 20.2405 4.01166 12.5596V9.21059C4.01166 7.91317 5.00972 6.99815 5.9982 6.60501C6.84999 6.26623 7.8049 5.57452 8.4091 4.07876C8.84312 3.00427 9.84617 2.04492 11.1745 2.04492ZM15.512 28.5757C16.0493 28.5786 16.5874 28.4105 17.0399 28.0689C22.1987 24.1748 25.6124 19.6528 25.6124 12.5596V9.21059C25.6124 8.70239 25.1978 8.18005 24.5084 7.9059C23.3399 7.44112 22.0791 6.49022 21.3169 4.60311C21.0295 3.89184 20.4471 3.44492 19.8495 3.44492H11.1745C10.577 3.44492 9.9945 3.89184 9.70719 4.60311C8.94492 6.49022 7.68419 7.44112 6.5156 7.9059C5.82628 8.18005 5.41166 8.70239 5.41166 9.21059V12.5596C5.41166 19.6528 8.8254 24.1748 13.9841 28.0689C14.4367 28.4105 14.9747 28.5786 15.512 28.5757Z" fill="url(#paint3_linear_18_24255)"/>
</g>
<path fill-rule="evenodd" clip-rule="evenodd" d="M11.1745 2.04492H19.8495C21.1779 2.04492 22.1809 3.00427 22.615 4.07876C23.2191 5.57452 24.1741 6.26623 25.0258 6.60501C26.0143 6.99815 27.0124 7.91317 27.0124 9.21059V12.5596C27.0124 20.2405 23.254 25.1322 17.8834 29.1863C17.1793 29.7178 16.3446 29.9788 15.512 29.9758C14.6795 29.9788 13.8448 29.7178 13.1407 29.1863C7.77 25.1322 4.01166 20.2405 4.01166 12.5596V9.21059C4.01166 7.91317 5.00972 6.99815 5.9982 6.60501C6.84999 6.26623 7.8049 5.57452 8.4091 4.07876C8.84312 3.00427 9.84617 2.04492 11.1745 2.04492ZM15.512 28.5757C16.0493 28.5786 16.5874 28.4105 17.0399 28.0689C22.1987 24.1748 25.6124 19.6528 25.6124 12.5596V9.21059C25.6124 8.70239 25.1978 8.18005 24.5084 7.9059C23.3399 7.44112 22.0791 6.49022 21.3169 4.60311C21.0295 3.89184 20.4471 3.44492 19.8495 3.44492H11.1745C10.577 3.44492 9.9945 3.89184 9.70719 4.60311C8.94492 6.49022 7.68419 7.44112 6.5156 7.9059C5.82628 8.18005 5.41166 8.70239 5.41166 9.21059V12.5596C5.41166 19.6528 8.8254 24.1748 13.9841 28.0689C14.4367 28.4105 14.9747 28.5786 15.512 28.5757Z" fill="url(#paint4_radial_18_24255)"/>
<path fill-rule="evenodd" clip-rule="evenodd" d="M11.1745 2.04492H19.8495C21.1779 2.04492 22.1809 3.00427 22.615 4.07876C23.2191 5.57452 24.1741 6.26623 25.0258 6.60501C26.0143 6.99815 27.0124 7.91317 27.0124 9.21059V12.5596C27.0124 20.2405 23.254 25.1322 17.8834 29.1863C17.1793 29.7178 16.3446 29.9788 15.512 29.9758C14.6795 29.9788 13.8448 29.7178 13.1407 29.1863C7.77 25.1322 4.01166 20.2405 4.01166 12.5596V9.21059C4.01166 7.91317 5.00972 6.99815 5.9982 6.60501C6.84999 6.26623 7.8049 5.57452 8.4091 4.07876C8.84312 3.00427 9.84617 2.04492 11.1745 2.04492ZM15.512 28.5757C16.0493 28.5786 16.5874 28.4105 17.0399 28.0689C22.1987 24.1748 25.6124 19.6528 25.6124 12.5596V9.21059C25.6124 8.70239 25.1978 8.18005 24.5084 7.9059C23.3399 7.44112 22.0791 6.49022 21.3169 4.60311C21.0295 3.89184 20.4471 3.44492 19.8495 3.44492H11.1745C10.577 3.44492 9.9945 3.89184 9.70719 4.60311C8.94492 6.49022 7.68419 7.44112 6.5156 7.9059C5.82628 8.18005 5.41166 8.70239 5.41166 9.21059V12.5596C5.41166 19.6528 8.8254 24.1748 13.9841 28.0689C14.4367 28.4105 14.9747 28.5786 15.512 28.5757Z" fill="url(#paint5_radial_18_24255)"/>
<defs>
<filter id="filter0_i_18_24255" x="4.71167" y="2.745" width="21.5252" height="27.2709" filterUnits="userSpaceOnUse" color-interpolation-filters="sRGB">
<feFlood flood-opacity="0" result="BackgroundImageFix"/>
<feBlend mode="normal" in="SourceGraphic" in2="BackgroundImageFix" result="shape"/>
<feColorMatrix in="SourceAlpha" type="matrix" values="0 0 0 0 0 0 0 0 0 0 0 0 0 0 0 0 0 0 127 0" result="hardAlpha"/>
<feOffset dx="0.75" dy="0.74"/>
<feGaussianBlur stdDeviation="0.5"/>
<feComposite in2="hardAlpha" operator="arithmetic" k2="-1" k3="1"/>
<feColorMatrix type="matrix" values="0 0 0 0 0.0627451 0 0 0 0 0.337255 0 0 0 0 0.713726 0 0 0 1 0"/>
<feBlend mode="normal" in2="shape" result="effect1_innerShadow_18_24255"/>
</filter>
<filter id="filter1_i_18_24255" x="15.112" y="2.745" width="10.9596" height="27.2809" filterUnits="userSpaceOnUse" color-interpolation-filters="sRGB">
<feFlood flood-opacity="0" result="BackgroundImageFix"/>
<feBlend mode="normal" in="SourceGraphic" in2="BackgroundImageFix" result="shape"/>
<feColorMatrix in="SourceAlpha" type="matrix" values="0 0 0 0 0 0 0 0 0 0 0 0 0 0 0 0 0 0 127 0" result="hardAlpha"/>
<feOffset dx="-0.4" dy="0.8"/>
<feGaussianBlur stdDeviation="0.375"/>
<feComposite in2="hardAlpha" operator="arithmetic" k2="-1" k3="1"/>
<feColorMatrix type="matrix" values="0 0 0 0 0.121569 0 0 0 0 0.478431 0 0 0 0 0.843137 0 0 0 1 0"/>
<feBlend mode="normal" in2="shape" result="effect1_innerShadow_18_24255"/>
</filter>
<filter id="filter2_iii_18_24255" x="3.76166" y="1.79492" width="23.5007" height="28.3309" filterUnits="userSpaceOnUse" color-interpolation-filters="sRGB">
<feFlood flood-opacity="0" result="BackgroundImageFix"/>
<feBlend mode="normal" in="SourceGraphic" in2="BackgroundImageFix" result="shape"/>
<feColorMatrix in="SourceAlpha" type="matrix" values="0 0 0 0 0 0 0 0 0 0 0 0 0 0 0 0 0 0 127 0" result="hardAlpha"/>
<feOffset dx="0.25"/>
<feGaussianBlur stdDeviation="0.25"/>
<feComposite in2="hardAlpha" operator="arithmetic" k2="-1" k3="1"/>
<feColorMatrix type="matrix" values="0 0 0 0 0.635294 0 0 0 0 0.588235 0 0 0 0 0.596078 0 0 0 1 0"/>
<feBlend mode="normal" in2="shape" result="effect1_innerShadow_18_24255"/>
<feColorMatrix in="SourceAlpha" type="matrix" values="0 0 0 0 0 0 0 0 0 0 0 0 0 0 0 0 0 0 127 0" result="hardAlpha"/>
<feOffset dy="-0.25"/>
<feGaussianBlur stdDeviation="0.25"/>
<feComposite in2="hardAlpha" operator="arithmetic" k2="-1" k3="1"/>
<feColorMatrix type="matrix" values="0 0 0 0 0.647059 0 0 0 0 0.501961 0 0 0 0 0.745098 0 0 0 1 0"/>
<feBlend mode="normal" in2="effect1_innerShadow_18_24255" result="effect2_innerShadow_18_24255"/>
<feColorMatrix in="SourceAlpha" type="matrix" values="0 0 0 0 0 0 0 0 0 0 0 0 0 0 0 0 0 0 127 0" result="hardAlpha"/>
<feOffset dx="-0.25" dy="0.15"/>
<feGaussianBlur stdDeviation="0.15"/>
<feComposite in2="hardAlpha" operator="arithmetic" k2="-1" k3="1"/>
<feColorMatrix type="matrix" values="0 0 0 0 0.854902 0 0 0 0 0.85098 0 0 0 0 0.862745 0 0 0 1 0"/>
<feBlend mode="normal" in2="effect2_innerShadow_18_24255" result="effect3_innerShadow_18_24255"/>
</filter>
<radialGradient id="paint0_radial_18_24255" cx="0" cy="0" r="1" gradientUnits="userSpaceOnUse" gradientTransform="translate(19.0138 16.7836) rotate(139.976) scale(13.0893 18.3325)">
<stop offset="0.792317" stop-color="#3782E8" stop-opacity="0"/>
<stop offset="0.943177" stop-color="#286ACA"/>
</radialGradient>
<radialGradient id="paint1_radial_18_24255" cx="0" cy="0" r="1" gradientUnits="userSpaceOnUse" gradientTransform="translate(15.512 16.0104) scale(10.1192 22.4259)">
<stop stop-color="#52C9FF"/>
<stop offset="1" stop-color="#59CBFF"/>
</radialGradient>
<radialGradient id="paint2_radial_18_24255" cx="0" cy="0" r="1" gradientUnits="userSpaceOnUse" gradientTransform="translate(16.5874 14.3644) rotate(12.0483) scale(9.20844 15.8393)">
<stop offset="0.796802" stop-color="#44AAFF" stop-opacity="0"/>
<stop offset="0.96638" stop-color="#1B7CE2"/>
</radialGradient>
<linearGradient id="paint3_linear_18_24255" x1="4.83722" y1="17.8792" x2="22.0128" y2="17.8792" gradientUnits="userSpaceOnUse">
<stop stop-color="#B8B3BE"/>
<stop offset="1" stop-color="#BBB3C4"/>
</linearGradient>
<radialGradient id="paint4_radial_18_24255" cx="0" cy="0" r="1" gradientUnits="userSpaceOnUse" gradientTransform="translate(8.42957 6.41602) rotate(-126.254) scale(0.841858 5.23728)">
<stop offset="0.278875" stop-color="#B8B1C0"/>
<stop offset="1" stop-color="#B8B1C0" stop-opacity="0"/>
</radialGradient>
<radialGradient id="paint5_radial_18_24255" cx="0" cy="0" r="1" gradientUnits="userSpaceOnUse" gradientTransform="translate(10.4219 4.93745) rotate(-126.69) scale(1.98751 2.44938)">
<stop offset="0.359827" stop-color="#B8B1C0"/>
<stop offset="1" stop-color="#B8B1C0" stop-opacity="0"/>
</radialGradient>
</defs>
</svg>

<svg width="100%" height="100%" viewBox="0 0 32 32" xmlns="http://www.w3.org/2000/svg"><g filter="url(#a)"><path fill="#378AED" d="M4.712 9.21c0-.902.706-1.62 1.545-1.954 1.01-.402 2.118-1.224 2.801-2.915.36-.893 1.154-1.596 2.117-1.596h7.804c.983 0 1.784.736 2.183 1.634a5.94 5.94 0 0 0 2.844 2.933c.8.39 1.48 1.138 1.48 2.027v3.22c0 6.948-2.173 11.142-7.903 15.956a3.23 3.23 0 0 1-4.02.113c-5.265-3.974-8.851-8.681-8.851-16.068z"/><path fill="url(#b)" d="M4.712 9.21c0-.902.706-1.62 1.545-1.954 1.01-.402 2.118-1.224 2.801-2.915.36-.893 1.154-1.596 2.117-1.596h7.804c.983 0 1.784.736 2.183 1.634a5.94 5.94 0 0 0 2.844 2.933c.8.39 1.48 1.138 1.48 2.027v3.22c0 6.948-2.173 11.142-7.903 15.956a3.23 3.23 0 0 1-4.02.113c-5.265-3.974-8.851-8.681-8.851-16.068z"/></g><path fill="#3C88F0" fill-opacity=".5" d="M15.512 29.276V2.745h3.467c.983 0 1.784.736 2.183 1.634a5.94 5.94 0 0 0 2.844 2.933c.8.39 1.48 1.138 1.48 2.027v3.22c0 6.948-2.173 11.142-7.903 15.956a3.24 3.24 0 0 1-2.071.76"/><g filter="url(#c)"><path fill="url(#d)" d="M15.512 29.264V2.745h3.868c1.01 0 1.835.736 2.245 1.634.69 1.515 1.873 2.436 2.924 2.933.822.39 1.523 1.138 1.523 2.027v3.22c0 6.948-2.236 11.142-8.126 15.956a3.4 3.4 0 0 1-2.434.749"/><path fill="url(#e)" d="M15.512 29.264V2.745h3.868c1.01 0 1.835.736 2.245 1.634.69 1.515 1.873 2.436 2.924 2.933.822.39 1.523 1.138 1.523 2.027v3.22c0 6.948-2.236 11.142-8.126 15.956a3.4 3.4 0 0 1-2.434.749"/></g><g filter="url(#f)"><path fill="url(#g)" fill-rule="evenodd" d="M11.175 2.045h8.674c1.329 0 2.332.96 2.766 2.034.604 1.496 1.56 2.187 2.41 2.526.99.393 1.987 1.308 1.987 2.606v3.349c0 7.68-3.758 12.572-9.129 16.626a3.9 3.9 0 0 1-2.371.79 3.9 3.9 0 0 1-2.371-.79C7.77 25.132 4.01 20.241 4.01 12.56V9.21c0-1.297.999-2.212 1.987-2.605.852-.339 1.807-1.03 2.411-2.526.434-1.075 1.437-2.034 2.765-2.034m4.337 26.53a2.5 2.5 0 0 0 1.528-.506c5.159-3.894 8.572-8.416 8.572-15.51V9.212c0-.509-.414-1.031-1.104-1.305-1.168-.465-2.429-1.416-3.191-3.303-.288-.711-.87-1.158-1.468-1.158h-8.674c-.598 0-1.18.447-1.468 1.158-.762 1.887-2.023 2.838-3.191 3.303-.69.274-1.104.796-1.104 1.305v3.349c0 7.093 3.413 11.615 8.572 15.509.453.341.99.51 1.528.507" clip-rule="evenodd"/></g><path fill="url(#h)" fill-rule="evenodd" d="M11.175 2.045h8.674c1.329 0 2.332.96 2.766 2.034.604 1.496 1.56 2.187 2.41 2.526.99.393 1.987 1.308 1.987 2.606v3.349c0 7.68-3.758 12.572-9.129 16.626a3.9 3.9 0 0 1-2.371.79 3.9 3.9 0 0 1-2.371-.79C7.77 25.132 4.01 20.241 4.01 12.56V9.21c0-1.297.999-2.212 1.987-2.605.852-.339 1.807-1.03 2.411-2.526.434-1.075 1.437-2.034 2.765-2.034m4.337 26.53a2.5 2.5 0 0 0 1.528-.506c5.159-3.894 8.572-8.416 8.572-15.51V9.212c0-.509-.414-1.031-1.104-1.305-1.168-.465-2.429-1.416-3.191-3.303-.288-.711-.87-1.158-1.468-1.158h-8.674c-.598 0-1.18.447-1.468 1.158-.762 1.887-2.023 2.838-3.191 3.303-.69.274-1.104.796-1.104 1.305v3.349c0 7.093 3.413 11.615 8.572 15.509.453.341.99.51 1.528.507" clip-rule="evenodd"/><path fill="url(#i)" fill-rule="evenodd" d="M11.175 2.045h8.674c1.329 0 2.332.96 2.766 2.034.604 1.496 1.56 2.187 2.41 2.526.99.393 1.987 1.308 1.987 2.606v3.349c0 7.68-3.758 12.572-9.129 16.626a3.9 3.9 0 0 1-2.371.79 3.9 3.9 0 0 1-2.371-.79C7.77 25.132 4.01 20.241 4.01 12.56V9.21c0-1.297.999-2.212 1.987-2.605.852-.339 1.807-1.03 2.411-2.526.434-1.075 1.437-2.034 2.765-2.034m4.337 26.53a2.5 2.5 0 0 0 1.528-.506c5.159-3.894 8.572-8.416 8.572-15.51V9.212c0-.509-.414-1.031-1.104-1.305-1.168-.465-2.429-1.416-3.191-3.303-.288-.711-.87-1.158-1.468-1.158h-8.674c-.598 0-1.18.447-1.468 1.158-.762 1.887-2.023 2.838-3.191 3.303-.69.274-1.104.796-1.104 1.305v3.349c0 7.093 3.413 11.615 8.572 15.509.453.341.99.51 1.528.507" clip-rule="evenodd"/><defs><radialGradient id="b" cx="0" cy="0" r="1" gradientTransform="matrix(-10.02346 8.41784 -11.78979 -14.03857 19.014 16.784)" gradientUnits="userSpaceOnUse"><stop offset=".792" stop-color="#3782E8" stop-opacity="0"/><stop offset=".943" stop-color="#286ACA"/></radialGradient><radialGradient id="d" cx="0" cy="0" r="1" gradientTransform="matrix(10.1192 0 0 22.4259 15.512 16.01)" gradientUnits="userSpaceOnUse"><stop stop-color="#52C9FF"/><stop offset="1" stop-color="#59CBFF"/></radialGradient><radialGradient id="e" cx="0" cy="0" r="1" gradientTransform="rotate(12.048 -59.764 85.773)scale(9.20844 15.8393)" gradientUnits="userSpaceOnUse"><stop offset=".797" stop-color="#4AF" stop-opacity="0"/><stop offset=".966" stop-color="#1B7CE2"/></radialGradient><radialGradient id="h" cx="0" cy="0" r="1" gradientTransform="rotate(-126.254 5.84 1.072)scale(.84186 5.23727)" gradientUnits="userSpaceOnUse"><stop offset=".279" stop-color="#B8B1C0"/><stop offset="1" stop-color="#B8B1C0" stop-opacity="0"/></radialGradient><radialGradient id="i" cx="0" cy="0" r="1" gradientTransform="matrix(-1.1875 -1.59374 1.9641 -1.46347 10.422 4.937)" gradientUnits="userSpaceOnUse"><stop offset=".36" stop-color="#B8B1C0"/><stop offset="1" stop-color="#B8B1C0" stop-opacity="0"/></radialGradient><filter id="a" width="21.525" height="27.271" x="4.712" y="2.745" color-interpolation-filters="sRGB" filterUnits="userSpaceOnUse"><feFlood flood-opacity="0" result="BackgroundImageFix"/><feBlend in="SourceGraphic" in2="BackgroundImageFix" result="shape"/><feColorMatrix in="SourceAlpha" result="hardAlpha" values="0 0 0 0 0 0 0 0 0 0 0 0 0 0 0 0 0 0 127 0"/><feOffset dx=".75" dy=".74"/><feGaussianBlur stdDeviation=".5"/><feComposite in2="hardAlpha" k2="-1" k3="1" operator="arithmetic"/><feColorMatrix values="0 0 0 0 0.0627451 0 0 0 0 0.337255 0 0 0 0 0.713726 0 0 0 1 0"/><feBlend in2="shape" result="effect1_innerShadow_18_24255"/></filter><filter id="c" width="10.96" height="27.281" x="15.112" y="2.745" color-interpolation-filters="sRGB" filterUnits="userSpaceOnUse"><feFlood flood-opacity="0" result="BackgroundImageFix"/><feBlend in="SourceGraphic" in2="BackgroundImageFix" result="shape"/><feColorMatrix in="SourceAlpha" result="hardAlpha" values="0 0 0 0 0 0 0 0 0 0 0 0 0 0 0 0 0 0 127 0"/><feOffset dx="-.4" dy=".8"/><feGaussianBlur stdDeviation=".375"/><feComposite in2="hardAlpha" k2="-1" k3="1" operator="arithmetic"/><feColorMatrix values="0 0 0 0 0.121569 0 0 0 0 0.478431 0 0 0 0 0.843137 0 0 0 1 0"/><feBlend in2="shape" result="effect1_innerShadow_18_24255"/></filter><filter id="f" width="23.501" height="28.331" x="3.762" y="1.795" color-interpolation-filters="sRGB" filterUnits="userSpaceOnUse"><feFlood flood-opacity="0" result="BackgroundImageFix"/><feBlend in="SourceGraphic" in2="BackgroundImageFix" result="shape"/><feColorMatrix in="SourceAlpha" result="hardAlpha" values="0 0 0 0 0 0 0 0 0 0 0 0 0 0 0 0 0 0 127 0"/><feOffset dx=".25"/><feGaussianBlur stdDeviation=".25"/><feComposite in2="hardAlpha" k2="-1" k3="1" operator="arithmetic"/><feColorMatrix values="0 0 0 0 0.635294 0 0 0 0 0.588235 0 0 0 0 0.596078 0 0 0 1 0"/><feBlend in2="shape" result="effect1_innerShadow_18_24255"/><feColorMatrix in="SourceAlpha" result="hardAlpha" values="0 0 0 0 0 0 0 0 0 0 0 0 0 0 0 0 0 0 127 0"/><feOffset dy="-.25"/><feGaussianBlur stdDeviation=".25"/><feComposite in2="hardAlpha" k2="-1" k3="1" operator="arithmetic"/><feColorMatrix values="0 0 0 0 0.647059 0 0 0 0 0.501961 0 0 0 0 0.745098 0 0 0 1 0"/><feBlend in2="effect1_innerShadow_18_24255" result="effect2_innerShadow_18_24255"/><feColorMatrix in="SourceAlpha" result="hardAlpha" values="0 0 0 0 0 0 0 0 0 0 0 0 0 0 0 0 0 0 127 0"/><feOffset dx="-.25" dy=".15"/><feGaussianBlur stdDeviation=".15"/><feComposite in2="hardAlpha" k2="-1" k3="1" operator="arithmetic"/><feColorMatrix values="0 0 0 0 0.854902 0 0 0 0 0.85098 0 0 0 0 0.862745 0 0 0 1 0"/><feBlend in2="effect2_innerShadow_18_24255" result="effect3_innerShadow_18_24255"/></filter><linearGradient id="g" x1="4.837" x2="22.013" y1="17.879" y2="17.879" gradientUnits="userSpaceOnUse"><stop stop-color="#B8B3BE"/><stop offset="1" stop-color="#BBB3C4"/></linearGradient></defs></svg>
